loleaflet/images/lc_pagewidth.svg

<svg viewBox="0 0 24 24" xmlns="http://www.w3.org/2000/svg"><path d="m5 2v16h14v-12.2705905l-4-3.7294095z" fill="#fafafa"/><path d="m5 1c-.554 0-1 .446-1 1v16c0 .554.446 1 1 1h14c.554 0 1-.446 1-1v-8.109375-3.6412209-.2079239c0-.4506799.09887-.4265951-.604637-1.0675892l-3.307389-3.2370335c-.709525-.7368575-.711223-.7368575-1.094804-.7368575h-.331557-.661613zm0 1h9v4c0 .554.446 1 1 1h4v11h-14z" fill="#3a3a38"/><g fill-rule="evenodd"><path d="m15 6h4l-4-4z" fill="#fafafa"/><path d="m6.4921875 19.003906c-.130048.0041-.25337.05875-.34375.152344l-1.9238281 1.908203c-.173289.160649-.2230094.266429-.2246094.435547.0016.169118.05132.274898.2246094.435547l1.9238281 1.908203c.09038.09359.213702.148244.34375.152344.4543181.0115.6868471-.540283.3613281-.857422l-1.15625-1.140625h2.8183594c.0037-.0001.00607.0021.00977.002h2.974605.5.5 2.974609c.0037.0001.0061-.0021.0098-.002h2.818359l-1.15625 1.140625c-.325519.317139-.09299.868922.361328.857422.130048-.0041.253371-.05875.34375-.152344l1.923829-1.908203c.173255-.160649.222975-.266429.224575-.435547-.0016-.169118-.05132-.274898-.224609-.435547l-1.923829-1.908203c-.09038-.09359-.213702-.148244-.34375-.152344-.454319-.0115-.686847.540283-.361328.857422l1.15625 1.140625h-2.818359c-.0037.0001-.0061-.0021-.0098-.002h-2.974575-.5-.5-2.9746094c-.0037-.000192-.00607.0021-.00977.002h-2.818355l1.15625-1.140625c.325519-.317139.09299-.868922-.3613281-.857422z" fill="#1e8bcd"/></g></svg>

<?xml version="1.0" encoding="UTF-8" standalone="no"?>
<svg
   xmlns:dc="http://purl.org/dc/elements/1.1/"
   xmlns:cc="http://creativecommons.org/ns#"
   xmlns:rdf="http://www.w3.org/1999/02/22-rdf-syntax-ns#"
   xmlns:svg="http://www.w3.org/2000/svg"
   xmlns="http://www.w3.org/2000/svg"
   xmlns:sodipodi="http://sodipodi.sourceforge.net/DTD/sodipodi-0.dtd"
   xmlns:inkscape="http://www.inkscape.org/namespaces/inkscape"
   viewBox="0 0 24 24"
   version="1.1"
   id="svg8"
   sodipodi:docname="lc_paperwidth.svg"
   inkscape:version="0.92.5 (2060ec1f9f, 2020-04-08)">
  <metadata
     id="metadata14">
    <rdf:RDF>
      <cc:Work
         rdf:about="">
        <dc:format>image/svg+xml</dc:format>
        <dc:type
           rdf:resource="http://purl.org/dc/dcmitype/StillImage" />
        <dc:title></dc:title>
      </cc:Work>
    </rdf:RDF>
  </metadata>
  <defs
     id="defs12" />
  <sodipodi:namedview
     pagecolor="#ffffff"
     bordercolor="#666666"
     borderopacity="1"
     objecttolerance="10"
     gridtolerance="10"
     guidetolerance="10"
     inkscape:pageopacity="0"
     inkscape:pageshadow="2"
     inkscape:window-width="1366"
     inkscape:window-height="700"
     id="namedview10"
     showgrid="true"
     inkscape:zoom="16"
     inkscape:cx="11.918252"
     inkscape:cy="14.775372"
     inkscape:window-x="0"
     inkscape:window-y="0"
     inkscape:window-maximized="1"
     inkscape:current-layer="svg8"
     inkscape:snap-global="true">
    <inkscape:grid
       type="xygrid"
       id="grid821" />
  </sodipodi:namedview>
  <path
     d="M 5,2 V 18 H 19 V 5.7294095 L 15,2 Z"
     id="path2"
     inkscape:connector-curvature="0"
     style="fill:#fafafa"
     sodipodi:nodetypes="cccccc" />
  <path
     d="M 5,1 C 4.446,1 4,1.446 4,2 v 16 c 0,0.554 0.446,1 1,1 h 14 c 0.554,0 1,-0.446 1,-1 V 9.890625 6.2494041 6.0414802 C 20,5.5908003 20.09887,5.6148851 19.395363,4.973891 L 16.087974,1.7368575 C 15.378449,1 15.376751,1 14.99317,1 H 14.661613 14 Z m 0,1 h 9 v 4 c 0,0.554 0.446,1 1,1 h 4 V 18 H 5 Z"
     id="path4"
     inkscape:connector-curvature="0"
     style="fill:#3a3a38"
     sodipodi:nodetypes="ssssssccsccsccsccsscccc" />
  <path
     d="m 15,6 h 4 L 15,2 Z"
     id="path6"
     inkscape:connector-curvature="0"
     style="fill:#fafafa;fill-rule:evenodd"
     sodipodi:nodetypes="cccc" />
  <path
     style="fill:#1e8bcd;fill-rule:evenodd"
     d="m 6.4921875,19.003906 c -0.130048,0.0041 -0.25337,0.05875 -0.34375,0.152344 L 4.2246094,21.064453 C 4.0513204,21.225102 4.0016,21.330882 4,21.5 c 0.0016,0.169118 0.05132,0.274898 0.2246094,0.435547 l 1.9238281,1.908203 c 0.09038,0.09359 0.213702,0.148244 0.34375,0.152344 0.4543181,0.0115 0.6868471,-0.540283 0.3613281,-0.857422 l -1.15625,-1.140625 H 8.515625 c 0.0037,-10e-5 0.00607,0.0021 0.00977,0.002 H 11.5 12 h 0.5 2.974609 c 0.0037,10e-5 0.0061,-0.0021 0.0098,-0.002 h 2.818359 l -1.15625,1.140625 c -0.325519,0.317139 -0.09299,0.868922 0.361328,0.857422 0.130048,-0.0041 0.253371,-0.05875 0.34375,-0.152344 l 1.923829,-1.908203 C 19.94868,21.774898 19.9984,21.669118 20,21.5 19.9984,21.330882 19.94868,21.225102 19.775391,21.064453 L 17.851562,19.15625 c -0.09038,-0.09359 -0.213702,-0.148244 -0.34375,-0.152344 -0.454319,-0.0115 -0.686847,0.540283 -0.361328,0.857422 l 1.15625,1.140625 h -2.818359 c -0.0037,10e-5 -0.0061,-0.0021 -0.0098,-0.002 H 12.5 12 11.5 8.5253906 c -0.0037,-1.92e-4 -0.00607,0.0021 -0.00977,0.002 H 5.6972656 l 1.15625,-1.140625 c 0.325519,-0.317139 0.09299,-0.868922 -0.3613281,-0.857422 z"
     id="path8-3"
     inkscape:connector-curvature="0"
     sodipodi:nodetypes="ccccccccccccccccccccccccccccccccccccc" />
</svg>
